src/assets/icons/svg/redo.svg

<svg width="30" height="30" viewBox="0 0 30 30" fill="none" xmlns="http://www.w3.org/2000/svg">
<path d="M19.8135 5.31845C20.2343 5.31845 20.5896 5.46315 20.8792 5.75255C21.1686 6.04217 21.3133 6.39739 21.3133 6.81819C21.3133 7.239 21.1686 7.59422 20.8792 7.88384C20.5896 8.17324 20.2343 8.31794 19.8135 8.31794L11.8814 8.31794C10.5601 8.31794 9.4161 8.74556 8.44945 9.60079C7.4828 10.4562 6.99948 11.5196 6.99948 12.7908C6.99948 14.0618 7.4828 15.1263 8.44945 15.9844C9.4161 16.8423 10.5601 17.2712 11.8814 17.2712L19.9276 17.2712L17.7139 15.0579C17.4355 14.7792 17.2963 14.4295 17.2963 14.0087C17.2963 13.5879 17.4355 13.2383 17.7139 12.9599C17.9925 12.6812 18.3422 12.5419 18.7631 12.5419C19.1839 12.5419 19.5336 12.6812 19.8122 12.9599L24.5745 17.7139C24.7219 17.8616 24.8297 18.0255 24.8978 18.2057C24.9659 18.3856 25 18.5741 25 18.771C25 18.9679 24.9659 19.1563 24.8978 19.3363C24.8297 19.5164 24.7219 19.6804 24.5745 19.828L19.8122 24.5821C19.5336 24.8607 19.1839 25 18.7631 25C18.3422 25 17.9925 24.8607 17.7139 24.5821C17.4355 24.3036 17.2963 23.954 17.2963 23.5332C17.2963 23.1124 17.4355 22.7627 17.7139 22.4841L19.9276 20.2707L11.8814 20.2707C9.71824 20.2707 7.86395 19.5536 6.3185 18.1193C4.77283 16.6851 4 14.9114 4 12.7984C4 10.6856 4.77283 8.91069 6.3185 7.4738C7.86395 6.0369 9.71824 5.31845 11.8814 5.31845L19.8135 5.31845Z" fill="#2D2D2D"/>
</svg>

<svg xmlns="http://www.w3.org/2000/svg" fill="none" viewBox="0 0 30 30" id="redo">
  <path fill="var(--connect__icon-fill-color, #2d2d2d)" d="M19.814 5.318c.42 0 .776.145 1.065.435.29.29.434.644.434 1.065 0 .421-.144.776-.434 1.066a1.45 1.45 0 0 1-1.066.434h-7.932c-1.32 0-2.465.428-3.432 1.283C7.483 10.456 7 11.52 7 12.79c0 1.27.484 2.335 1.45 3.193.967.858 2.111 1.287 3.432 1.287h8.047l-2.214-2.213c-.278-.279-.418-.628-.418-1.05 0-.42.14-.77.418-1.048.279-.279.628-.418 1.05-.418.42 0 .77.14 1.048.418l4.762 4.754c.148.148.256.312.324.492s.102.368.102.565c0 .197-.034.385-.102.565-.068.18-.176.344-.323.492l-4.763 4.754c-.278.279-.628.418-1.049.418-.42 0-.77-.14-1.05-.418-.277-.278-.417-.628-.417-1.049 0-.42.14-.77.418-1.049l2.214-2.213H11.88c-2.163 0-4.017-.717-5.563-2.152C4.774 16.685 4 14.911 4 12.8c0-2.113.773-3.888 2.319-5.325 1.545-1.437 3.4-2.156 5.562-2.156h7.933Z"/>
</svg>
